X:1
B:C Findlater and M Campbell,Scottish Songs, Lomond Books, 2004
T:The Four Maries
M:C     %Meter
L:1/8     %
K:D
F |G2 d2 d3 d |d4 A2 F3/2G/ |A3 B A2 E2 | F6
w:Yes-treen the Queen had four Ma-ries, The nicht she'll ha'e but  three; 
 FF |d2 B2 ^A/F3/2 z F |d2 B2 ^A/F3/2 z F |f2 f3/2e/ d2 d3/2c/ | B6 
w:There was Ma-rie Sea-ton, And Ma-rie Bea-ton, And Ma-rie Car-mi-chael and me.
B2 |A3 A B2 e2 |A3 d c2 d2 |e3 d c2 B2 | A4 z2 
w:Oh oft-en ha'e I dress'd my Queen, And deck'd wi' gowd her hair,
(F3/2E/) |D3 E F2 A2 |g3 f (fHe) z/ (DE/) |F2 A2 d3 e | d6 z2 |]
w:And_ she has gien me in re-turn_ A_ hem-pen scarf to wear. 